X:1
T:Title
%%score { ( 1 3 ) | 2 }
L:1/8
M:4/4
K:G
V:1 treble nm="Grand Piano"
V:3 treble 
V:2 bass 
V:1
 z4 z2 z[Q:1/4=100] [B,D] | [B,D]2 [DB][^C_B] [D=B]2 [DG][^DG] | [EG]2 [DF][CE] [B,D]3 [B,D] | %3
 D2 A^G A3 F | E2 [B,D][_B,^C] [=B,D]3 [B,D] | [B,D]2 [DB][^C_B] [D=B]2 [DG][^DG] | %6
 [EG]2 [DF][CE] [B,D]3 [B,D] | [CE]2 [EA][D^G] [CA]2 [CE][CE] |[M:7/8] F2 F F [B,G]3 | %9
[M:1/8] [B,D] |[M:4/4] d6 z2 | c4 z4 | c6 z2 | B4 z4 | B6 z2 | A4 z4 | A6 z2 | %17
[M:7/8] G-G-G- G- G3 |] %18
V:2
 z4 z2 z [G,,G,] | [G,,G,]2 [G,,G,][G,,G,] [G,,G,]2 [B,,G,][B,,G,] | %2
 [C,G,]2 [C,G,][C,G,] [G,,G,]3 [G,,G,] | [D,F,C]2 [D,F,C][D,=F,C] [D,^F,C]3 [D,A,C] | %4
 [G,C]2 [G,,G,][G,,G,] [G,,G,]3 [G,,G,] | [G,,G,]2 [G,,G,][G,,G,] [G,,G,]2 [B,,G,][B,,G,] | %6
 [C,G,]2 [C,G,][C,G,] [G,,G,]3 [G,,G,] | [C,G,]2 [C,G,][B,,E,] [A,,E,]2 [A,,A,][A,,A,] | %8
[M:7/8] [D,A,C]2 [D,A,C] [D,A,C] [G,,G,]3 |[M:1/8] [G,,G,] | %10
[M:4/4] [G,,B,D]2 [A,,F,][A,,F,] [B,,G,]2 G,,[G,B,D] | [F,A,D]2 A,[G,B,] [F,C]3 [D,F,] | %12
 [D,F,D]2 [E,G,][E,G,] [F,A,]2 [D,CD][D,A,D] | [G,D]2 B,[A,C] [G,B,]3 [G,B,] | %14
 [G,B,D]2 [F,A,][F,A,] [E,G,]2 [D,B,][D,G,] | [C,G,]2 [C,G,][B,,^G,] [A,,A,]3 [A,C] | %16
 [D,F,C]2 [E,G,][E,G,] [F,A,]2 [D,D][D,CD] |[M:7/8] [G,B,D]2 B, [A,C] [G,B,]3 |] %18
V:3
 x8 | x8 | x8 | x8 | x8 | x8 | x8 | x8 |[M:7/8] x7 |[M:1/8] x |[M:4/4] z2 DD D2 [DB]d | %11
 z2 DD D3 D | z2 DD D2 Ac | z2 DD D3 D | z2 ^DD E2 [=FG][FB] | E2 ED [CE]3 E | z2 ^CC D2 BA | %17
[M:7/8] z2 D D D3 |] %18

